X:542
T:Whisky In The Jar 
C:Joe Buchanan's Scottish Tome - Page 067.2
I:067 2
R:Reel
Z:Carl Allison
L:1/4
M:4/4
K:Cmaj
E | "C"G>G GA | "C"G (E2 G) | "Am"A>A AB | "Am"A (E2 G) |
"F"A>A AB | "F"ccBA | "C"GG cB |1 A E2 :|2
"C"AGEC || "G"D3/2 D D E |"G"D4 |z "C"E E3/2 D/ | "C"E F "C7"G4 |
z "F"A A3/2 G/ | "F"A B c A | "C"G E "G7"D3/2 E/ | "C"C6 C2 :|

